; generated by Slic3r 1.2.9 on 2017-09-17 at 15:07:32

; external perimeters extrusion width = 0.40mm
; perimeters extrusion width = 0.67mm
; infill extrusion width = 0.67mm
; solid infill extrusion width = 0.67mm
; top infill extrusion width = 0.67mm

M107
M190 S60 ; set bed temperature
M104 S235 ; set temperature
G28 ; home all axes
G1 Z5 F5000 ; lift nozzle

M109 S235 ; wait for temperature to be reached
G21 ; set units to millimeters
G90 ; use absolute coordinates
M82 ; use absolute distances for extrusion
G92 E0
G1 Z0.200 F7800.000
G1 E-2.00000 F2400.00000
G92 E0
G1 X19.123 Y48.437 F7800.000
G1 E2.00000 F2400.00000
G1 X21.084 Y47.742 E2.06177 F1800.000
G1 X141.684 Y26.242 E5.69900
G1 X142.800 Y26.143 E5.73225
G1 X157.800 Y26.143 E6.17762
G1 X160.011 Y26.540 E6.24432
G1 X161.946 Y27.681 E6.31101 F1800.000
G1 X163.363 Y29.423 E6.37771
G1 X164.157 Y32.500 E6.47204
G1 X164.157 Y147.500 E9.88654
G1 X163.760 Y149.711 E9.95324
G1 X162.619 Y151.646 E10.01993
G1 X160.876 Y153.063 E10.08663
G1 X157.800 Y153.857 E10.18096
G1 X142.800 Y153.857 E10.62633
G1 X141.354 Y153.690 E10.66955
G1 X40.754 Y130.190 E13.73691
G1 X38.691 Y129.301 E13.80361
G1 X37.403 Y128.171 E13.85448
G1 X17.403 Y105.171 E14.75946
G1 X16.252 Y103.243 E14.82615
G1 X15.843 Y101.000 E14.89383
G1 X15.843 Y54.000 E16.28932
G1 X16.240 Y51.789 E16.35602
G1 X17.381 Y49.854 E16.42271
G1 X19.077 Y48.475 E16.48762
G1 E14.48762 F2400.00000
G92 E0
G1 X112.181 Y92.459 F7800.000
G1 E2.00000 F2400.00000
G1 X112.622 Y92.277 E2.01417 F1800.000
G1 X112.622 Y73.355 E2.57596
G1 X115.655 Y70.322 E2.70332
G1 X148.413 Y70.322 E3.67594
G1 X148.622 Y70.113 E3.68472
G1 X148.622 Y40.887 E4.55249
G1 X148.413 Y40.678 E4.56128
G1 X140.655 Y40.678 E4.79162
G1 X137.622 Y37.645 E4.91897
G1 X137.622 Y30.355 E5.13540
G1 X140.655 Y27.322 E5.26275
G1 X159.945 Y27.322 E5.83548
G1 X162.978 Y30.355 E5.96283
G1 X162.978 Y81.645 E7.48568
G1 X159.945 Y84.678 E7.61303
G1 X127.187 Y84.678 E8.58566
G1 X126.978 Y84.887 E8.59444
G1 X126.978 Y94.113 E8.86838
G1 X127.187 Y94.322 E8.87717
G1 X159.945 Y94.322 E9.84979
G1 X162.978 Y97.355 E9.97714
G1 X162.978 Y149.645 E11.52968
G1 X159.945 Y152.678 E11.65704
G1 X140.655 Y152.678 E12.22976
G1 X137.622 Y149.645 E12.35711
G1 X137.622 Y142.355 E12.57354
G1 X140.655 Y139.322 E12.70090
G1 X148.413 Y139.322 E12.93124
G1 X148.622 Y139.113 E12.94002
G1 X148.622 Y109.887 E13.80779
G1 X148.413 Y109.678 E13.81657
G1 X115.655 Y109.678 E14.78920
G1 X115.019 Y109.041 E14.81594
G1 X114.578 Y109.223 E14.83010
G1 X114.578 Y126.145 E15.33252
G1 X111.545 Y129.178 E15.45987
G1 X87.255 Y129.178 E16.18105
G1 X84.222 Y126.145 E16.30841
G1 X84.222 Y118.855 E16.52484
G1 X87.255 Y115.822 E16.65219
G1 X100.013 Y115.822 E17.03099
G1 X100.222 Y115.613 E17.03977
G1 X100.222 Y106.387 E17.31371
G1 X100.013 Y106.178 E17.32250
G1 X67.587 Y106.178 E18.28528
G1 X67.378 Y106.387 E18.29406
G1 X67.378 Y126.145 E18.88070
G1 X64.345 Y129.178 E19.00805
G1 X40.055 Y129.178 E19.72923
G1 X37.022 Y126.145 E19.85659
G1 X37.022 Y118.855 E20.07302
G1 X40.055 Y115.822 E20.20037
G1 X52.813 Y115.822 E20.57917
G1 X53.022 Y115.613 E20.58795
G1 X53.022 Y106.387 E20.86189
G1 X52.813 Y106.178 E20.87068
G1 X20.055 Y106.178 E21.84330
G1 X17.022 Y103.145 E21.97065
G1 X17.022 Y51.855 E23.49350
G1 X20.055 Y48.822 E23.62085
G1 X44.345 Y48.822 E24.34204
G1 X47.378 Y51.855 E24.46939
G1 X47.378 Y59.145 E24.68582
G1 X44.345 Y62.178 E24.81317
G1 X31.587 Y62.178 E25.19197
G1 X31.378 Y62.387 E25.20075
G1 X31.378 Y91.613 E26.06852
G1 X31.587 Y91.822 E26.07731
G1 X64.013 Y91.822 E27.04009
G1 X64.222 Y91.613 E27.04887
G1 X64.222 Y51.855 E28.22933
G1 X67.255 Y48.822 E28.35669
G1 X91.545 Y48.822 E29.07787
G1 X94.578 Y51.855 E29.20522
G1 X94.578 Y59.145 E29.42165
G1 X91.545 Y62.178 E29.54900
G1 X78.787 Y62.178 E29.92780
G1 X78.578 Y62.387 E29.93658
G1 X78.578 Y91.613 E30.80435
G1 X78.787 Y91.822 E30.81314
G1 X111.545 Y91.822 E31.78576
G1 X112.139 Y92.417 E31.81072
G1 X112.539 Y93.321 F7800.000
G1 X112.979 Y93.139 E31.82489 F1800.000
G1 X112.979 Y73.503 E32.40789
G1 X115.803 Y70.679 E32.52646
G1 X148.770 Y70.679 E33.50529
G1 X148.979 Y70.470 E33.51407
G1 X148.979 Y40.530 E34.40305
G1 X148.770 Y40.321 E34.41183
G1 X140.803 Y40.321 E34.64838
G1 X137.979 Y37.497 E34.76695
G1 X137.979 Y30.503 E34.97460
G1 X140.803 Y27.679 E35.09317
G1 X159.797 Y27.679 E35.65711
G1 X162.621 Y30.503 E35.77568
G1 X162.621 Y81.497 E37.28975
G1 X159.797 Y84.321 E37.40832
G1 X126.830 Y84.321 E38.38715
G1 X126.621 Y84.530 E38.39593
G1 X126.621 Y94.470 E38.69108
G1 X126.830 Y94.679 E38.69986
G1 X159.797 Y94.679 E39.67870
G1 X162.621 Y97.503 E39.79727
G1 X162.621 Y149.497 E41.34102
G1 X159.797 Y152.321 E41.45959
G1 X140.803 Y152.321 E42.02354
G1 X137.979 Y149.497 E42.14211
G1 X137.979 Y142.503 E42.34975
G1 X140.803 Y139.679 E42.46833
G1 X148.770 Y139.679 E42.70488
G1 X148.979 Y139.470 E42.71366
G1 X148.979 Y109.530 E43.60263
G1 X148.770 Y109.321 E43.61141
G1 X115.803 Y109.321 E44.59025
G1 X114.661 Y108.179 E44.63819
G1 X114.221 Y108.361 E44.65236
G1 X114.221 Y125.997 E45.17598
G1 X111.397 Y128.821 E45.29455
G1 X87.403 Y128.821 E46.00695
G1 X84.579 Y125.997 E46.12552
G1 X84.579 Y119.003 E46.33317
G1 X87.403 Y116.179 E46.45174
G1 X100.370 Y116.179 E46.83674
G1 X100.579 Y115.970 E46.84553
G1 X100.579 Y106.030 E47.14067
G1 X100.370 Y105.821 E47.14946
G1 X67.230 Y105.821 E48.13344
G1 X67.021 Y106.030 E48.14223
G1 X67.021 Y125.997 E48.73507
G1 X64.197 Y128.821 E48.85364
G1 X40.203 Y128.821 E49.56604
G1 X37.379 Y125.997 E49.68461
G1 X37.379 Y119.003 E49.89226
G1 X40.203 Y116.179 E50.01083
G1 X53.170 Y116.179 E50.39584
G1 X53.379 Y115.970 E50.40462
G1 X53.379 Y106.030 E50.69977
G1 X53.170 Y105.821 E50.70855
G1 X20.203 Y105.821 E51.68738
G1 X17.379 Y102.997 E51.80596
G1 X17.379 Y52.003 E53.32002
G1 X20.203 Y49.179 E53.43859
G1 X44.197 Y49.179 E54.15099
G1 X47.021 Y52.003 E54.26956
G1 X47.021 Y58.997 E54.47721
G1 X44.197 Y61.821 E54.59578
G1 X31.230 Y61.821 E54.98078
G1 X31.021 Y62.030 E54.98957
G1 X31.021 Y91.970 E55.87854
G1 X31.230 Y92.179 E55.88732
G1 X64.370 Y92.179 E56.87131
G1 X64.579 Y91.970 E56.88009
G1 X64.579 Y52.003 E58.06676
G1 X67.403 Y49.179 E58.18534
G1 X91.397 Y49.179 E58.89773
G1 X94.221 Y52.003 E59.01631
G1 X94.221 Y58.997 E59.22395
G1 X91.397 Y61.821 E59.34252
G1 X78.430 Y61.821 E59.72753
G1 X78.221 Y62.030 E59.73631
G1 X78.221 Y91.970 E60.62529
G1 X78.430 Y92.179 E60.63407
G1 X111.397 Y92.179 E61.61290
G1 X112.496 Y93.279 E61.65907
G1 X112.896 Y94.183 F7800.000
G1 X113.337 Y94.001 E61.67323 F1800.000
G1 X113.337 Y73.651 E62.27744
G1 X115.951 Y71.037 E62.38723
G1 X149.127 Y71.037 E63.37227
G1 X149.337 Y70.827 E63.38105
G1 X149.337 Y40.173 E64.29123
G1 X149.127 Y39.963 E64.30001
G1 X140.951 Y39.963 E64.54278
G1 X138.337 Y37.349 E64.65256
G1 X138.337 Y30.651 E64.85143
G1 X140.951 Y28.037 E64.96122
G1 X159.649 Y28.037 E65.51637
G1 X162.263 Y30.651 E65.62616
G1 X162.263 Y81.349 E67.13144
G1 X159.649 Y83.963 E67.24123
G1 X126.473 Y83.963 E68.22627
G1 X126.263 Y84.173 E68.23506
G1 X126.263 Y94.827 E68.55141
G1 X126.473 Y95.037 E68.56019
G1 X159.649 Y95.037 E69.54523
G1 X162.263 Y97.651 E69.65502
G1 X162.263 Y149.349 E71.18999
G1 X159.649 Y151.963 E71.29978
G1 X140.951 Y151.963 E71.85494
G1 X138.337 Y149.349 E71.96473
G1 X138.337 Y142.651 E72.16359
G1 X140.951 Y140.037 E72.27338
G1 X149.127 Y140.037 E72.51614
G1 X149.337 Y139.827 E72.52493
G1 X149.337 Y109.173 E73.43510
G1 X149.127 Y108.963 E73.44389
G1 X115.951 Y108.963 E74.42893
G1 X114.304 Y107.317 E74.49808
G1 X113.863 Y107.499 E74.51225
G1 X113.863 Y125.849 E75.05707
G1 X111.249 Y128.463 E75.16686
G1 X87.551 Y128.463 E75.87047
G1 X84.937 Y125.849 E75.98026
G1 X84.937 Y119.151 E76.17912
G1 X87.551 Y116.537 E76.28891
G1 X100.727 Y116.537 E76.68013
G1 X100.937 Y116.327 E76.68891
G1 X100.937 Y105.673 E77.00526
G1 X100.727 Y105.463 E77.01405
G1 X67.551 Y105.463 E77.99909
G1 X67.104 Y105.017 E78.01785
G1 X66.663 Y105.199 E78.03202
G1 X66.663 Y125.849 E78.64513
G1 X64.049 Y128.463 E78.75492
G1 X40.351 Y128.463 E79.45854
G1 X37.737 Y125.849 E79.56832
G1 X37.737 Y119.151 E79.76719
G1 X40.351 Y116.537 E79.87698
G1 X53.527 Y116.537 E80.26819
G1 X53.737 Y116.327 E80.27698
G1 X53.737 Y105.673 E80.59333
G1 X53.527 Y105.463 E80.60211
G1 X20.351 Y105.463 E81.58715
G1 X17.737 Y102.849 E81.69694
G1 X17.737 Y52.151 E83.20222
G1 X20.351 Y49.537 E83.31201
G1 X44.049 Y49.537 E84.01563
G1 X46.663 Y52.151 E84.12542
G1 X46.663 Y58.849 E84.32428
G1 X44.049 Y61.463 E84.43407
G1 X30.873 Y61.463 E84.82528
G1 X30.663 Y61.673 E84.83407
G1 X30.663 Y92.327 E85.74424
G1 X30.873 Y92.537 E85.75303
G1 X64.049 Y92.537 E86.73807
G1 X64.496 Y92.983 E86.75683
G1 X64.937 Y92.801 E86.77100
G1 X64.937 Y52.151 E87.97794
G1 X67.551 Y49.537 E88.08773
G1 X91.249 Y49.537 E88.79134
G1 X93.863 Y52.151 E88.90113
G1 X93.863 Y58.849 E89.09999
G1 X91.249 Y61.463 E89.20978
G1 X78.073 Y61.463 E89.60100
G1 X77.863 Y61.673 E89.60978
G1 X77.863 Y92.327 E90.51996
G1 X78.073 Y92.537 E90.52874
G1 X111.249 Y92.537 E91.51379
G1 X112.853 Y94.141 E91.58115
G1 X113.253 Y95.045 F7800.000
G1 X113.694 Y94.863 E91.59532 F1800.000
G1 X113.694 Y73.799 E92.22073
G1 X116.099 Y71.394 E92.32174
G1 X149.484 Y71.394 E93.31299
G1 X149.694 Y71.184 E93.32177
G1 X149.694 Y39.816 E94.25316
G1 X149.484 Y39.606 E94.26194
G1 X141.099 Y39.606 E94.51091
G1 X138.694 Y37.201 E94.61192
G1 X138.694 Y30.799 E94.80200
G1 X141.099 Y28.394 E94.90300
G1 X159.501 Y28.394 E95.44938
G1 X161.906 Y30.799 E95.55038
G1 X161.906 Y81.201 E97.04688
G1 X159.501 Y83.606 E97.14788
G1 X126.116 Y83.606 E98.13914
G1 X125.906 Y83.816 E98.14792
G1 X125.906 Y95.184 E98.48548
G1 X126.116 Y95.394 E98.49426
G1 X159.501 Y95.394 E99.48551
G1 X161.906 Y97.799 E99.58652
G1 X161.906 Y149.201 E101.11271
G1 X159.501 Y151.606 E101.21371
G1 X141.099 Y151.606 E101.76009
G1 X138.694 Y149.201 E101.86109
G1 X138.694 Y142.799 E102.05117
G1 X141.099 Y140.394 E102.15218
G1 X149.484 Y140.394 E102.40115
G1 X149.694 Y140.184 E102.40993
G1 X149.694 Y108.816 E103.34132
G1 X149.484 Y108.606 E103.35010
G1 X116.099 Y108.606 E104.34135
G1 X113.947 Y106.455 E104.43171
G1 X113.506 Y106.637 E104.44587
G1 X113.506 Y125.701 E105.01190
G1 X111.101 Y128.106 E105.11291
G1 X87.699 Y128.106 E105.80774
G1 X85.294 Y125.701 E105.90874
G1 X85.294 Y119.299 E106.09882
G1 X87.699 Y116.894 E106.19983
G1 X101.084 Y116.894 E106.59726
G1 X101.294 Y116.684 E106.60604
G1 X101.294 Y105.316 E106.94360
G1 X101.084 Y105.106 E106.95238
G1 X67.699 Y105.106 E107.94363
G1 X66.747 Y104.155 E107.98360
G1 X66.306 Y104.337 E107.99777
G1 X66.306 Y125.701 E108.63208
G1 X63.901 Y128.106 E108.73309
G1 X40.499 Y128.106 E109.42792
G1 X38.094 Y125.701 E109.52893
G1 X38.094 Y119.299 E109.71900
G1 X40.499 Y116.894 E109.82001
G1 X53.884 Y116.894 E110.21744
G1 X54.094 Y116.684 E110.22622
G1 X54.094 Y105.316 E110.56378
G1 X53.884 Y105.106 E110.57256
G1 X20.499 Y105.106 E111.56381
G1 X18.094 Y102.701 E111.66482
G1 X18.094 Y52.299 E113.16132
G1 X20.499 Y49.894 E113.26232
G1 X43.901 Y49.894 E113.95715
G1 X46.306 Y52.299 E114.05816
G1 X46.306 Y58.701 E114.24824
G1 X43.901 Y61.106 E114.34924
G1 X30.516 Y61.106 E114.74667
G1 X30.306 Y61.316 E114.75546
G1 X30.306 Y92.684 E115.68684
G1 X30.516 Y92.894 E115.69562
G1 X63.901 Y92.894 E116.68687
G1 X64.853 Y93.845 E116.72684
G1 X65.294 Y93.663 E116.74101
G1 X65.294 Y52.299 E117.96915
G1 X67.699 Y49.894 E118.07016
G1 X91.101 Y49.894 E118.76499
G1 X93.506 Y52.299 E118.86599
G1 X93.506 Y58.701 E119.05607
G1 X91.101 Y61.106 E119.15708
G1 X77.716 Y61.106 E119.55451
G1 X77.506 Y61.316 E119.56329
G1 X77.506 Y92.684 E120.49467
G1 X77.716 Y92.894 E120.50345
G1 X111.101 Y92.894 E121.49471
G1 X113.210 Y95.003 E121.58328
G1 E119.58328 F2400.00000
G92 E0
G1 X116.684 Y114.766 F7800.000
G1 X109.779 Y137.750 F7800.000
G1 X71.040 Y114.552 F7800.000
G1 X67.035 Y103.834 F7800.000
G1 X66.908 Y103.547 F7800.000
G1 X66.701 Y103.107 F7800.000
G1 X66.390 Y103.293 F7800.000
G1 E2.00000 F2400.00000
G1 X65.949 Y103.475 E2.01417 F1800.000
G1 X65.949 Y125.553 E2.66969
G1 X63.753 Y127.749 E2.76191
G1 X40.647 Y127.749 E3.44796
G1 X38.451 Y125.553 E3.54018
G1 X38.451 Y119.447 E3.72148
G1 X40.647 Y117.251 E3.81370
G1 X54.241 Y117.251 E4.21734
G1 X54.451 Y117.041 E4.22612
G1 X54.451 Y104.959 E4.58488
G1 X54.241 Y104.749 E4.59367
G1 X20.647 Y104.749 E5.59113
G1 X18.451 Y102.553 E5.68335
G1 X18.451 Y52.447 E7.17107
G1 X20.647 Y50.251 E7.26329
G1 X43.753 Y50.251 E7.94934
G1 X45.949 Y52.447 E8.04156
G1 X45.949 Y58.553 E8.22286
G1 X43.753 Y60.749 E8.31508
G1 X30.158 Y60.749 E8.71872
G1 X29.949 Y60.959 E8.72750
G1 X29.949 Y93.041 E9.68009
G1 X30.158 Y93.251 E9.68887
G1 X63.753 Y93.251 E10.68633
G1 X65.210 Y94.707 E10.74750
G1 X65.651 Y94.525 E10.76167
G1 X65.651 Y52.447 E12.01102
G1 X67.847 Y50.251 E12.10324
G1 X90.953 Y50.251 E12.78929
G1 X93.149 Y52.447 E12.88151
G1 X93.149 Y58.553 E13.06281
G1 X90.953 Y60.749 E13.15503
G1 X77.358 Y60.749 E13.55867
G1 X77.149 Y60.959 E13.56745
G1 X77.149 Y93.041 E14.52004
G1 X77.358 Y93.251 E14.52882
G1 X110.953 Y93.251 E15.52629
G1 X113.149 Y95.447 E15.61851
G1 X113.149 Y125.553 E16.51240
G1 X110.953 Y127.749 E16.60462
G1 X87.847 Y127.749 E17.29067
G1 X85.651 Y125.553 E17.38289
G1 X85.651 Y119.447 E17.56419
G1 X87.847 Y117.251 E17.65641
G1 X101.441 Y117.251 E18.06005
G1 X101.651 Y117.041 E18.06883
G1 X101.651 Y104.959 E18.42759
G1 X101.441 Y104.749 E18.43637
G1 X67.847 Y104.749 E19.43384
G1 X66.433 Y103.335 E19.49323
G1 X66.033 Y102.430 F7800.000
G1 X65.592 Y102.613 E19.50740 F1800.000
G1 X65.592 Y125.405 E20.18412
G1 X63.605 Y127.392 E20.26756
G1 X40.795 Y127.392 E20.94483
G1 X38.808 Y125.405 E21.02826
G1 X38.808 Y119.595 E21.20078
G1 X40.795 Y117.608 E21.28422
G1 X54.599 Y117.608 E21.69407
G1 X54.808 Y117.399 E21.70285
G1 X54.808 Y104.601 E22.08281
G1 X54.599 Y104.392 E22.09160
G1 X20.795 Y104.392 E23.09527
G1 X18.808 Y102.405 E23.17871
G1 X18.808 Y52.595 E24.65764
G1 X20.795 Y50.608 E24.74108
G1 X43.605 Y50.608 E25.41835
G1 X45.592 Y52.595 E25.50179
G1 X45.592 Y58.405 E25.67430
G1 X43.605 Y60.392 E25.75774
G1 X29.801 Y60.392 E26.16759
G1 X29.592 Y60.601 E26.17637
G1 X29.592 Y93.399 E27.15016
G1 X29.801 Y93.608 E27.15894
G1 X63.605 Y93.608 E28.16262
G1 X65.567 Y95.570 E28.24499
G1 X66.008 Y95.387 E28.25916
G1 X66.008 Y52.595 E29.52971
G1 X67.995 Y50.608 E29.61315
G1 X90.805 Y50.608 E30.29042
G1 X92.792 Y52.595 E30.37386
G1 X92.792 Y58.405 E30.54637
G1 X90.805 Y60.392 E30.62981
G1 X77.001 Y60.392 E31.03966
G1 X76.792 Y60.601 E31.04844
G1 X76.792 Y93.399 E32.02223
G1 X77.001 Y93.608 E32.03102
G1 X110.805 Y93.608 E33.03469
G1 X112.792 Y95.595 E33.11813
G1 X112.792 Y125.405 E34.00324
G1 X110.805 Y127.392 E34.08667
G1 X87.995 Y127.392 E34.76394
G1 X86.008 Y125.405 E34.84738
G1 X86.008 Y119.595 E35.01989
G1 X87.995 Y117.608 E35.10333
G1 X101.799 Y117.608 E35.51318
G1 X102.008 Y117.399 E35.52196
G1 X102.008 Y104.601 E35.90193
G1 X101.799 Y104.392 E35.91071
G1 X67.995 Y104.392 E36.91439
G1 X66.076 Y102.473 E36.99498
G1 X66.365 Y102.257 F7800.000
G1 X66.365 Y52.743 E38.46513 F1800.000
G1 X68.143 Y50.965 E38.53978
G1 X90.657 Y50.965 E39.20827
G1 X92.435 Y52.743 E39.28292
G1 X92.435 Y58.257 E39.44665 F1800.000
G1 X90.657 Y60.035 E39.52131
G1 X76.644 Y60.035 E39.93737
G1 X76.435 Y60.244 E39.94615
G1 X76.435 Y93.756 E40.94115
G1 X76.644 Y93.965 E40.94993
G1 X110.657 Y93.965 E41.95981
G1 X112.435 Y95.743 E42.03447
G1 X112.435 Y125.257 E42.91079
G1 X110.657 Y127.035 E42.98545
G1 X88.143 Y127.035 E43.65393
G1 X86.365 Y125.257 E43.72859
G1 X86.365 Y119.743 E43.89232
G1 X88.143 Y117.965 E43.96697
G1 X102.156 Y117.965 E44.38303
G1 X102.365 Y117.756 E44.39182
G1 X102.365 Y104.244 E44.79299
G1 X102.156 Y104.035 E44.80177
G1 X68.143 Y104.035 E45.81165
G1 X66.407 Y102.300 E45.88453
G1 X66.722 Y102.109 F7800.000
G1 X66.722 Y52.891 E47.34589 F1800.000
G1 X68.291 Y51.322 E47.41177
G1 X90.509 Y51.322 E48.07147
G1 X92.078 Y52.891 E48.13734 F1800.000
G1 X92.078 Y58.109 E48.29229
G1 X90.509 Y59.678 E48.35816
G1 X76.287 Y59.678 E48.78043
G1 X76.078 Y59.887 E48.78921
G1 X76.078 Y94.113 E49.80541
G1 X76.287 Y94.322 E49.81419
G1 X110.509 Y94.322 E50.83029
