; generated by Slic3r 1.2.9 on 2017-09-14 at 15:32:34

; external perimeters extrusion width = 0.40mm
; perimeters extrusion width = 0.67mm
; infill extrusion width = 0.67mm
; solid infill extrusion width = 0.67mm
; top infill extrusion width = 0.67mm

M107
M190 S60 ; set bed temperature
M104 S235 ; set temperature
G28 ; home all axes
G1 Z5 F5000 ; lift nozzle

M109 S235 ; wait for temperature to be reached
G21 ; set units to millimeters
G90 ; use absolute coordinates
M82 ; use absolute distances for extrusion
G92 E0
G1 Z0.200 F7800.000
G1 E-2.00000 F2400.00000
G92 E0
G1 X25.520 Y56.144 F7800.000
G1 E2.00000 F2400.00000
G1 X58.369 Y41.213 E3.07137 F1800.000
G1 X61.000 Y40.643 E3.15129
G1 X163.000 Y40.643 E6.17980
G1 X165.211 Y41.040 E6.24649
G1 X167.146 Y42.181 E6.31319 F1800.000
G1 X168.563 Y43.923 E6.37988
G1 X169.357 Y47.000 E6.47422
G1 X169.357 Y113.000 E8.43384
G1 X168.960 Y115.211 E8.50054
G1 X167.171 Y117.797 E8.59390
G1 X144.171 Y137.797 E9.49888
G1 X142.243 Y138.948 E9.56557
G1 X140.000 Y139.357 E9.63326
G1 X17.000 Y139.357 E13.28529
G1 X14.789 Y138.960 E13.35198
G1 X12.854 Y137.819 E13.41867
G1 X11.437 Y136.077 E13.48537
G1 X10.643 Y133.000 E13.57971
G1 X10.643 Y67.000 E15.53933
G1 X11.040 Y64.789 E15.60603
G1 X12.181 Y62.854 E15.67272
G1 X14.369 Y61.213 E15.75395
G1 X25.465 Y56.169 E16.11584
G1 E14.11584 F2400.00000
G92 E0
G1 X58.187 Y90.392 F7800.000
G1 E2.00000 F2400.00000
G1 X15.595 Y90.392 E3.26461 F1800.000
G1 X13.608 Y88.405 E3.34805
G1 X13.608 Y65.595 E4.02532
G1 X15.595 Y63.608 E4.10876
G1 X22.405 Y63.608 E4.31096
G1 X24.392 Y65.595 E4.39440
G1 X24.392 Y79.399 E4.80425
G1 X24.601 Y79.608 E4.81303
G1 X57.399 Y79.608 E5.78682
G1 X57.608 Y79.399 E5.79561
G1 X57.608 Y45.595 E6.79928
G1 X59.595 Y43.608 E6.88272
G1 X88.405 Y43.608 E7.73813
G1 X90.392 Y45.595 E7.82157
G1 X90.392 Y64.187 E8.37359
G1 X90.833 Y64.370 E8.38776
G1 X91.595 Y63.608 E8.41975
G1 X98.405 Y63.608 E8.62195
G1 X100.392 Y65.595 E8.70539
G1 X100.392 Y79.399 E9.11524
G1 X100.601 Y79.608 E9.12403
G1 X133.399 Y79.608 E10.09782
G1 X133.608 Y79.399 E10.10660
G1 X133.608 Y45.595 E11.11027
G1 X135.595 Y43.608 E11.19371
G1 X164.405 Y43.608 E12.04913
G1 X166.392 Y45.595 E12.13257
G1 X166.392 Y68.405 E12.80983
G1 X164.405 Y70.392 E12.89327
G1 X158.595 Y70.392 E13.06578
G1 X156.608 Y68.405 E13.14922
G1 X156.608 Y54.601 E13.55907
G1 X156.399 Y54.392 E13.56786
G1 X143.601 Y54.392 E13.94782
G1 X143.392 Y54.601 E13.95660
G1 X143.392 Y88.405 E14.96028
G1 X142.630 Y89.167 E14.99227
G1 X142.813 Y89.608 E15.00643
G1 X164.405 Y89.608 E15.64753
G1 X166.392 Y91.595 E15.73097
G1 X166.392 Y114.405 E16.40823
G1 X164.405 Y116.392 E16.49167
G1 X158.595 Y116.392 E16.66419
G1 X156.608 Y114.405 E16.74763
G1 X156.608 Y100.601 E17.15748
G1 X156.399 Y100.392 E17.16626
G1 X143.601 Y100.392 E17.54622
G1 X143.392 Y100.601 E17.55501
G1 X143.392 Y134.405 E18.55868
G1 X141.405 Y136.392 E18.64212
G1 X91.595 Y136.392 E20.12105
G1 X89.608 Y134.405 E20.20449
G1 X89.608 Y115.813 E20.75651
G1 X89.167 Y115.630 E20.77068
G1 X88.405 Y116.392 E20.80267
G1 X82.595 Y116.392 E20.97518
G1 X80.608 Y114.405 E21.05862
G1 X80.608 Y100.601 E21.46847
G1 X80.399 Y100.392 E21.47725
G1 X67.601 Y100.392 E21.85722
G1 X67.392 Y100.601 E21.86600
G1 X67.392 Y134.405 E22.86967
G1 X65.405 Y136.392 E22.95311
G1 X15.595 Y136.392 E24.43204
G1 X13.608 Y134.405 E24.51548
G1 X13.608 Y111.595 E25.19275
G1 X15.595 Y109.608 E25.27619
G1 X22.405 Y109.608 E25.47839
G1 X24.392 Y111.595 E25.56183
G1 X24.392 Y125.399 E25.97168
G1 X24.601 Y125.608 E25.98047
G1 X57.399 Y125.608 E26.95426
G1 X57.608 Y125.399 E26.96304
G1 X57.608 Y91.595 E27.96671
G1 X58.370 Y90.833 E27.99870
G1 X58.210 Y90.448 E28.01109
G1 X59.049 Y90.035 F7800.000
G1 X15.743 Y90.035 E29.29690 F1800.000
G1 X13.965 Y88.257 E29.37156
G1 X13.965 Y65.743 E30.04004
G1 X15.743 Y63.965 E30.11470
G1 X22.257 Y63.965 E30.30812
G1 X24.035 Y65.743 E30.38278
G1 X24.035 Y79.756 E30.79884
G1 X24.244 Y79.965 E30.80762
G1 X57.756 Y79.965 E31.80261
G1 X57.965 Y79.756 E31.81140
G1 X57.965 Y45.743 E32.82128
G1 X59.743 Y43.965 E32.89594
G1 X88.257 Y43.965 E33.74257
G1 X90.035 Y45.743 E33.81723
G1 X90.035 Y65.049 E34.39045
G1 X90.476 Y65.232 E34.40462
G1 X91.743 Y63.965 E34.45781
G1 X98.257 Y63.965 E34.65123
G1 X100.035 Y65.743 E34.72589
G1 X100.035 Y79.756 E35.14195
G1 X100.244 Y79.965 E35.15073
G1 X133.756 Y79.965 E36.14573
G1 X133.965 Y79.756 E36.15451
G1 X133.965 Y45.743 E37.16439
G1 X135.743 Y43.965 E37.23905
G1 X164.257 Y43.965 E38.08568
G1 X166.035 Y45.743 E38.16034
G1 X166.035 Y68.257 E38.82882
G1 X164.257 Y70.035 E38.90348
G1 X158.743 Y70.035 E39.06721
G1 X156.965 Y68.257 E39.14186
G1 X156.965 Y54.244 E39.55792
G1 X156.756 Y54.035 E39.56671
G1 X143.244 Y54.035 E39.96787
G1 X143.035 Y54.244 E39.97666
G1 X143.035 Y88.257 E40.98654
G1 X141.768 Y89.524 E41.03973
G1 X141.951 Y89.965 E41.05390
G1 X164.257 Y89.965 E41.71620
G1 X166.035 Y91.743 E41.79086
G1 X166.035 Y114.257 E42.45934
G1 X164.257 Y116.035 E42.53400
G1 X158.743 Y116.035 E42.69773
G1 X156.965 Y114.257 E42.77238
G1 X156.965 Y100.244 E43.18844
G1 X156.756 Y100.035 E43.19723
G1 X143.244 Y100.035 E43.59839
G1 X143.035 Y100.244 E43.60718
G1 X143.035 Y134.257 E44.61706
G1 X141.257 Y136.035 E44.69172
G1 X91.743 Y136.035 E46.16187
G1 X89.965 Y134.257 E46.23652
G1 X89.965 Y114.951 E46.80975
G1 X89.524 Y114.768 E46.82392
G1 X88.257 Y116.035 E46.87711
G1 X82.743 Y116.035 E47.04084
G1 X80.965 Y114.257 E47.11549
G1 X80.965 Y100.244 E47.53155
G1 X80.756 Y100.035 E47.54034
G1 X67.244 Y100.035 E47.94151
G1 X67.035 Y100.244 E47.95029
G1 X67.035 Y134.257 E48.96018
G1 X65.257 Y136.035 E49.03483
G1 X15.743 Y136.035 E50.50498
G1 X13.965 Y134.257 E50.57963
G1 X13.965 Y111.743 E51.24812
G1 X15.743 Y109.965 E51.32277
G1 X22.257 Y109.965 E51.51619
G1 X24.035 Y111.743 E51.59085
G1 X24.035 Y125.756 E52.00691
G1 X24.244 Y125.965 E52.01569
G1 X57.756 Y125.965 E53.01069
G1 X57.965 Y125.756 E53.01947
G1 X57.965 Y91.743 E54.02936
G1 X59.232 Y90.476 E54.08255
G1 X59.072 Y90.091 E54.09494
G1 X59.911 Y89.678 F7800.000
G1 X15.891 Y89.678 E55.40196 F1800.000
G1 X14.322 Y88.109 E55.46783
G1 X14.322 Y65.891 E56.12753
G1 X15.891 Y64.322 E56.19340
G1 X22.109 Y64.322 E56.37804
G1 X23.678 Y65.891 E56.44391
G1 X23.678 Y80.113 E56.86618
G1 X23.887 Y80.322 E56.87497
G1 X58.113 Y80.322 E57.89117
G1 X58.322 Y80.113 E57.89995
G1 X58.322 Y45.891 E58.91605
G1 X59.891 Y44.322 E58.98192
G1 X88.109 Y44.322 E59.81977
G1 X89.678 Y45.891 E59.88564
G1 X89.678 Y65.911 E60.48007
G1 X90.119 Y66.094 E60.49424
G1 X91.891 Y64.322 E60.56863
G1 X98.109 Y64.322 E60.75327
G1 X99.678 Y65.891 E60.81914
G1 X99.678 Y80.113 E61.24141
G1 X99.887 Y80.322 E61.25020
G1 X134.113 Y80.322 E62.26640
G1 X134.322 Y80.113 E62.27518
G1 X134.322 Y45.891 E63.29128
G1 X135.891 Y44.322 E63.35715
G1 X164.109 Y44.322 E64.19500
G1 X165.678 Y45.891 E64.26087
G1 X165.678 Y68.109 E64.92057
G1 X164.109 Y69.678 E64.98644
G1 X158.891 Y69.678 E65.14139
G1 X157.322 Y68.109 E65.20726
G1 X157.322 Y53.887 E65.62953
G1 X157.113 Y53.678 E65.63832
G1 X142.887 Y53.678 E66.06069
G1 X142.678 Y53.887 E66.06947
G1 X142.678 Y88.109 E67.08557
G1 X140.906 Y89.881 E67.15996
G1 X141.089 Y90.322 E67.17413
G1 X164.109 Y90.322 E67.85764
G1 X165.678 Y91.891 E67.92351
G1 X165.678 Y114.109 E68.58321
G1 X164.109 Y115.678 E68.64908
G1 X158.891 Y115.678 E68.80403
G1 X157.322 Y114.109 E68.86990
G1 X157.322 Y99.887 E69.29217
G1 X157.113 Y99.678 E69.30095
G1 X142.887 Y99.678 E69.72333
G1 X142.678 Y99.887 E69.73211
G1 X142.678 Y134.109 E70.74821
G1 X141.109 Y135.678 E70.81408
G1 X91.891 Y135.678 E72.27544
G1 X90.322 Y134.109 E72.34132
G1 X90.322 Y114.089 E72.93575
G1 X89.881 Y113.906 E72.94992
G1 X88.109 Y115.678 E73.02431
G1 X82.891 Y115.678 E73.17926
G1 X81.322 Y114.109 E73.24513
G1 X81.322 Y99.887 E73.66740
G1 X81.113 Y99.678 E73.67618
G1 X66.887 Y99.678 E74.09856
G1 X66.678 Y99.887 E74.10734
G1 X66.678 Y134.109 E75.12344
G1 X65.109 Y135.678 E75.18931
G1 X15.891 Y135.678 E76.65067
G1 X14.322 Y134.109 E76.71655
G1 X14.322 Y111.891 E77.37625
G1 X15.891 Y110.322 E77.44212
G1 X22.109 Y110.322 E77.62676
G1 X23.678 Y111.891 E77.69263
G1 X23.678 Y126.113 E78.11490
G1 X23.887 Y126.322 E78.12369
G1 X58.113 Y126.322 E79.13988
G1 X58.322 Y126.113 E79.14867
G1 X58.322 Y91.891 E80.16476
G1 X60.094 Y90.119 E80.23916
G1 X59.934 Y89.734 E80.25155
G1 E78.25155 F2400.00000
G92 E0
G1 X66.063 Y89.648 F7800.000
G1 X87.414 Y87.414 F7800.000
G1 X98.252 Y98.252 F7800.000
G1 X90.346 Y110.941 F7800.000
G1 X90.173 Y111.529 F7800.000
G1 X90.679 Y112.039 F7800.000
G1 E2.00000 F2400.00000
G1 X92.039 Y110.679 E2.05709 F1800.000
G1 X97.961 Y110.679 E2.23295
G1 X99.321 Y112.039 E2.29004
G1 X99.321 Y126.470 E2.71852
G1 X99.530 Y126.679 E2.72730
G1 X134.470 Y126.679 E3.76470
G1 X134.679 Y126.470 E3.77349
G1 X134.679 Y92.039 E4.79579
G1 X136.039 Y90.679 E4.85288
G1 X163.961 Y90.679 E5.68195
G1 X165.321 Y92.039 E5.73904 F1800.000
G1 X165.321 Y113.961 E6.38995
G1 X163.961 Y115.321 E6.44704
G1 X159.039 Y115.321 E6.59321
G1 X157.679 Y113.961 E6.65030
G1 X157.679 Y99.530 E7.07878
G1 X157.470 Y99.321 E7.08756
G1 X142.530 Y99.321 E7.53114
G1 X142.321 Y99.530 E7.53992
G1 X142.321 Y133.961 E8.56223
G1 X140.961 Y135.321 E8.61932
G1 X92.039 Y135.321 E10.07190
G1 X90.679 Y133.961 E10.12899
G1 X90.679 Y112.099 E10.77812
G1 X91.036 Y112.187 F7800.000
G1 X92.187 Y111.036 E10.82643 F1800.000
G1 X97.813 Y111.036 E10.99350
G1 X98.964 Y112.187 E11.04181
G1 X98.964 Y126.827 E11.47650
G1 X99.173 Y127.036 E11.48529
G1 X134.827 Y127.036 E12.54389
G1 X135.036 Y126.827 E12.55268
G1 X135.036 Y92.187 E13.58119
G1 X136.187 Y91.036 E13.62950
G1 X163.813 Y91.036 E14.44978
G1 X164.964 Y92.187 E14.49809
G1 X164.964 Y113.813 E15.14022 F1800.000
G1 X163.813 Y114.964 E15.18853
G1 X159.187 Y114.964 E15.32591
G1 X158.036 Y113.813 E15.37422
G1 X158.036 Y99.173 E15.80891
G1 X157.827 Y98.964 E15.81769
G1 X142.173 Y98.964 E16.28247
G1 X141.964 Y99.173 E16.29126
G1 X141.964 Y133.813 E17.31977
G1 X140.813 Y134.964 E17.36808
G1 X92.187 Y134.964 E18.81188
G1 X91.036 Y133.813 E18.86019
G1 X91.036 Y112.247 E19.50054
G1 X91.393 Y112.334 F7800.000
G1 X92.334 Y111.393 E19.54006 F1800.000
G1 X97.666 Y111.393 E19.69835
G1 X98.607 Y112.334 E19.73787
G1 X98.607 Y127.184 E20.17878
G1 X98.816 Y127.393 E20.18756
G1 X135.184 Y127.393 E21.26737
G1 X135.393 Y127.184 E21.27615
G1 X135.393 Y92.334 E22.31088
G1 X136.334 Y91.393 E22.35041
G1 X163.666 Y91.393 E23.16190
G1 X164.607 Y92.334 E23.20143 F1800.000
G1 X164.607 Y113.666 E23.83478
G1 X163.666 Y114.607 E23.87430
G1 X159.334 Y114.607 E24.00290
G1 X158.393 Y113.666 E24.04242
G1 X158.393 Y98.816 E24.48333
G1 X158.184 Y98.607 E24.49211
G1 X141.816 Y98.607 E24.97809
G1 X141.607 Y98.816 E24.98688
G1 X141.607 Y133.666 E26.02161
G1 X140.666 Y134.607 E26.06113
G1 X92.334 Y134.607 E27.49614
G1 X91.393 Y133.666 E27.53567
G1 X91.393 Y112.394 E28.16724
G1 X91.750 Y112.482 F7800.000
G1 X92.482 Y111.750 E28.19798 F1800.000
G1 X97.518 Y111.750 E28.34748
G1 X98.250 Y112.482 E28.37822
G1 X98.250 Y127.541 E28.82534
G1 X98.459 Y127.750 E28.83412
G1 X135.541 Y127.750 E29.93514
G1 X135.750 Y127.541 E29.94392
G1 X135.750 Y92.482 E30.98486
G1 X136.482 Y91.750 E31.01560
G1 X163.518 Y91.750 E31.81831
G1 X164.250 Y92.482 E31.84905
G1 X164.250 Y113.518 E32.47362 F1800.000
G1 X163.518 Y114.250 E32.50436
G1 X159.482 Y114.250 E32.62418
G1 X158.750 Y113.518 E32.65492
G1 X158.750 Y98.459 E33.10203
G1 X158.541 Y98.250 E33.11081
G1 X141.459 Y98.250 E33.61800
G1 X141.250 Y98.459 E33.62679
G1 X141.250 Y133.518 E34.66772
G1 X140.518 Y134.250 E34.69847
G1 X92.482 Y134.250 E36.12470
G1 X91.750 Y133.518 E36.15544
G1 X91.750 Y112.542 E36.77822
G1 X92.107 Y112.630 F7800.000
G1 X92.630 Y112.107 E36.80018 F1800.000
G1 X97.370 Y112.107 E36.94090
G1 X97.893 Y112.630 E36.96286
G1 X97.893 Y127.898 E37.41619
G1 X98.102 Y128.107 E37.42497
G1 X135.898 Y128.107 E38.54719
G1 X136.107 Y127.898 E38.55597
G1 X136.107 Y92.630 E39.60312
G1 X136.630 Y92.107 E39.62508
G1 X163.370 Y92.107 E40.41901
G1 X163.893 Y92.630 E40.44097 F1800.000
G1 X163.893 Y113.370 E41.05675
G1 X163.370 Y113.893 E41.07871
G1 X159.630 Y113.893 E41.18974
G1 X159.107 Y113.370 E41.21170
G1 X159.107 Y98.102 E41.66502
G1 X158.898 Y97.893 E41.67380
G1 X141.102 Y97.893 E42.20220
G1 X140.893 Y98.102 E42.21098
G1 X140.893 Y133.370 E43.25813
G1 X140.370 Y133.893 E43.28009
G1 X92.630 Y133.893 E44.69754
G1 X92.107 Y133.370 E44.71950
G1 X92.107 Y112.690 E45.33350
G1 X92.464 Y112.778 F7800.000
G1 X92.778 Y112.464 E45.34667 F1800.000
G1 X97.222 Y112.464 E45.47861
G1 X97.536 Y112.778 E45.49179
G1 X97.536 Y128.255 E45.95132
G1 X97.745 Y128.464 E45.96010
G1 X136.255 Y128.464 E47.10353
G1 X136.464 Y128.255 E47.11231
G1 X136.464 Y92.778 E48.16567
G1 X136.778 Y92.464 E48.17885
G1 X163.222 Y92.464 E48.96399
G1 X163.536 Y92.778 E48.97717
G1 X163.536 Y113.222 E49.58417 F1800.000
G1 X163.222 Y113.536 E49.59734
G1 X159.778 Y113.536 E49.69959
G1 X159.464 Y113.222 E49.71277
G1 X159.464 Y97.745 E50.17230
G1 X159.255 Y97.536 E50.18108
G1 X140.745 Y97.536 E50.73068
G1 X140.536 Y97.745 E50.73947
G1 X140.536 Y133.222 E51.79283
G1 X140.222 Y133.536 E51.80600
G1 X92.778 Y133.536 E53.21467
G1 X92.464 Y133.222 E53.22784
G1 X92.464 Y112.838 E53.83306
G1 X92.926 Y112.821 F7800.000
G1 X97.074 Y112.821 E53.95622 F1800.000
G1 X97.179 Y112.926 E53.96061
G1 X97.179 Y128.612 E54.42635
G1 X97.388 Y128.821 E54.43514
G1 X136.612 Y128.821 E55.59976
G1 X136.821 Y128.612 E55.60855
G1 X136.821 Y92.926 E56.66812
G1 X136.926 Y92.821 E56.67251
G1 X163.074 Y92.821 E57.44887
G1 X163.179 Y92.926 E57.45327
G1 X163.179 Y113.074 E58.05148
G1 X163.074 Y113.179 E58.05588
G1 X159.926 Y113.179 E58.14934
G1 X159.821 Y113.074 E58.15373
G1 X159.821 Y97.388 E58.61948
G1 X159.612 Y97.179 E58.62826
G1 X140.388 Y97.179 E59.19906
G1 X140.179 Y97.388 E59.20785
G1 X140.179 Y133.074 E60.26742
G1 X140.074 Y133.179 E60.27181
G1 X92.926 Y133.179 E61.67169
G1 X92.821 Y133.074 E61.67608
G1 X92.821 Y112.926 E62.27430
G1 X92.884 Y112.864 E62.27691
G1 E60.27691 F2400.00000
G92 E0
G1 X92.318 Y112.211 F7800.000
G1 X98.252 Y98.252 F7800.000
G1 X92.586 Y92.586 F7800.000
G1 X92.586 Y88.000 F7800.000
G1 X92.926 Y89.321 F7800.000
G1 E2.00000 F2400.00000
G1 X92.039 Y89.321 E2.02635 F1800.000
G1 X90.679 Y87.961 E2.08344
G1 X90.679 Y66.039 E2.73436
G1 X92.039 Y64.679 E2.79145
G1 X97.961 Y64.679 E2.96730
G1 X99.321 Y66.039 E3.02439
G1 X99.321 Y80.470 E3.45287
G1 X99.530 Y80.679 E3.46166
G1 X134.470 Y80.679 E4.49906
G1 X134.679 Y80.470 E4.50784
G1 X134.679 Y46.039 E5.53015
G1 X136.039 Y44.679 E5.58724
G1 X163.961 Y44.679 E6.41630
G1 X165.321 Y46.039 E6.47339 F1800.000
G1 X165.321 Y67.961 E7.12431
G1 X163.961 Y69.321 E7.18140
G1 X159.039 Y69.321 E7.32756
G1 X157.679 Y67.961 E7.38465
G1 X157.679 Y53.530 E7.81313
G1 X157.470 Y53.321 E7.82192
G1 X142.530 Y53.321 E8.26549
G1 X142.321 Y53.530 E8.27428
G1 X142.321 Y87.961 E9.29658
G1 X140.961 Y89.321 E9.35367
G1 X92.986 Y89.321 E10.77812
G1 X92.926 Y88.964 F7800.000
G1 X92.187 Y88.964 E10.80008 F1800.000
G1 X91.036 Y87.813 E10.84839
G1 X91.036 Y66.187 E11.49052
G1 X92.187 Y65.036 E11.53883
G1 X97.813 Y65.036 E11.70590
G1 X98.964 Y66.187 E11.75421
G1 X98.964 Y80.827 E12.18890
G1 X99.173 Y81.036 E12.19768
G1 X134.827 Y81.036 E13.25629
G1 X135.036 Y80.827 E13.26507
G1 X135.036 Y46.187 E14.29359
G1 X136.187 Y45.036 E14.34190
G1 X163.813 Y45.036 E15.16218
G1 X164.964 Y46.187 E15.21049
G1 X164.964 Y67.813 E15.85262 F1800.000
G1 X163.813 Y68.964 E15.90093
G1 X159.187 Y68.964 E16.03831
G1 X158.036 Y67.813 E16.08661
G1 X158.036 Y53.173 E16.52131
G1 X157.827 Y52.964 E16.53009
G1 X142.173 Y52.964 E16.99487
G1 X141.964 Y53.173 E17.00365
G1 X141.964 Y87.813 E18.03217
G1 X140.813 Y88.964 E18.08048
G1 X92.986 Y88.964 E19.50054
G1 X92.926 Y88.607 F7800.000
G1 X92.334 Y88.607 E19.51810 F1800.000
G1 X91.393 Y87.666 E19.55763
G1 X91.393 Y66.334 E20.19098
G1 X92.334 Y65.393 E20.23050
G1 X97.666 Y65.393 E20.38879
G1 X98.607 Y66.334 E20.42831
G1 X98.607 Y81.184 E20.86922
G1 X98.816 Y81.393 E20.87800
G1 X135.184 Y81.393 E21.95781
G1 X135.393 Y81.184 E21.96659
G1 X135.393 Y46.334 E23.00132
