; generated by Slic3r 1.2.9 on 2017-09-12 at 16:54:57

; external perimeters extrusion width = 0.40mm
; perimeters extrusion width = 0.67mm
; infill extrusion width = 0.67mm
; solid infill extrusion width = 0.67mm
; top infill extrusion width = 0.67mm

M107
M190 S60 ; set bed temperature
M104 S235 ; set temperature
G28 ; home all axes
G1 Z5 F5000 ; lift nozzle

M109 S235 ; wait for temperature to be reached
G21 ; set units to millimeters
G90 ; use absolute coordinates
M82 ; use absolute distances for extrusion
G92 E0
G1 Z0.200 F7800.000
G1 E-2.00000 F2400.00000
G92 E0
G1 X67.923 Y71.892 F7800.000
G1 E2.00000 F2400.00000
G1 X82.045 Y58.549 E2.57687 F1800.000
G1 X83.140 Y57.719 E2.61767
G1 X84.410 Y56.957 E2.66165
G1 X85.935 Y56.296 E2.71098
G1 X87.713 Y55.788 E2.76589
G1 X89.459 Y55.543 E2.81824
G1 X91.745 Y55.543 E2.88612
G1 X93.436 Y55.772 E2.93677
G1 X97.119 Y56.788 E3.05021 F1800.000
G1 X98.402 Y57.298 E3.09122
G1 X102.720 Y59.584 E3.23629
G1 X103.448 Y60.034 E3.26171
G1 X111.957 Y66.130 E3.57249
G1 X112.342 Y66.429 E3.58695
G1 X119.454 Y72.398 E3.86263
G1 X119.862 Y72.772 E3.87907
G1 X125.069 Y77.979 E4.09771
G1 X125.371 Y78.303 E4.11086
G1 X128.159 Y81.527 E4.23742
G1 X131.080 Y85.337 E4.37997
G1 X131.324 Y85.679 E4.39244
G1 X133.610 Y89.108 E4.51480
G1 X133.840 Y89.480 E4.52779
G1 X135.872 Y93.036 E4.64940
G1 X136.180 Y93.648 E4.66971
G1 X139.228 Y100.633 E4.89599
G1 X139.481 Y101.317 E4.91767
G1 X140.878 Y105.889 E5.05961
G1 X141.014 Y106.415 E5.07574
G1 X141.776 Y109.971 E5.18372
G1 X141.880 Y110.614 E5.20304
G1 X142.642 Y117.599 E5.41167
G1 X142.679 Y118.288 E5.43217
G1 X142.679 Y122.352 E5.55283
G1 X142.654 Y122.915 E5.56956
G1 X142.146 Y128.630 E5.73992
G1 X142.074 Y129.172 E5.75615
G1 X141.312 Y133.490 E5.88633
G1 X141.219 Y133.927 E5.89960
G1 X140.076 Y138.499 E6.03953
G1 X139.155 Y140.547 E6.10622
G1 X137.579 Y142.148 E6.17292
G1 X135.067 Y143.208 E6.25388
G1 X131.638 Y143.843 E6.35742
G1 X131.056 Y143.923 E6.37486
G1 X126.865 Y144.304 E6.49981
G1 X126.381 Y144.329 E6.51418
G1 X117.399 Y144.457 E6.78090
G1 X112.438 Y144.156 E6.92846
G1 X107.231 Y143.521 E7.08421
G1 X106.676 Y143.428 E7.10093
G1 X98.929 Y141.777 E7.33611
G1 X98.293 Y141.607 E7.35567
G1 X93.594 Y140.083 E7.50234
G1 X93.194 Y139.938 E7.51496
G1 X90.019 Y138.668 E7.61649
G1 X89.629 Y138.497 E7.62914
G1 X86.454 Y136.973 E7.73371
G1 X86.028 Y136.748 E7.74800
G1 X82.726 Y134.843 E7.86119
G1 X82.224 Y134.521 E7.87891
G1 X78.287 Y131.727 E8.02225
G1 X77.871 Y131.406 E8.03785
G1 X75.458 Y129.374 E8.13152
G1 X75.058 Y129.006 E8.14765
G1 X72.264 Y126.212 E8.26497
G1 X71.875 Y125.787 E8.28208
G1 X69.335 Y122.739 E8.39988
G1 X69.065 Y122.391 E8.41295
G1 X67.414 Y120.105 E8.49668
G1 X67.117 Y119.654 E8.51273
G1 X64.831 Y115.844 E8.64465
G1 X64.560 Y115.342 E8.66159
G1 X62.655 Y111.405 E8.79145
G1 X62.449 Y110.931 E8.80679
G1 X60.925 Y106.994 E8.93214
G1 X60.750 Y106.479 E8.94828
G1 X58.972 Y100.383 E9.13682
G1 X58.828 Y99.782 E9.15518
G1 X57.558 Y93.051 E9.35856
G1 X57.451 Y92.059 E9.38818
G1 X57.321 Y87.554 E9.52199
G1 X57.418 Y86.449 E9.55492
G1 X57.799 Y84.290 E9.62001
G1 X58.191 Y82.950 E9.66148
G1 X58.826 Y81.426 E9.71050
G1 X59.943 Y79.648 E9.77285
G1 X60.959 Y78.505 E9.81825
G1 X61.344 Y78.107 E9.83469
G1 X67.879 Y71.933 E10.10162
G1 E8.10162 F2400.00000
G92 E0
G1 X67.923 Y78.447 F7800.000
G1 E2.00000 F2400.00000
G1 X69.414 Y78.447 E2.04429 F1800.000
G1 X69.710 Y78.473 E2.05309
G1 X72.137 Y78.901 E2.12629
G1 X72.379 Y78.962 E2.13370
G1 X74.861 Y79.790 E2.21138
G1 X77.976 Y81.165 E2.31247
G1 X78.271 Y81.027 E2.32214
G1 X78.396 Y80.584 E2.33583
G1 X78.853 Y77.728 E2.42170
G1 X79.617 Y69.318 E2.67242
G1 X79.670 Y69.025 E2.68126
G1 X80.507 Y65.956 E2.77572
G1 X80.600 Y65.700 E2.78380
G1 X81.347 Y64.055 E2.83747
G1 X81.481 Y63.815 E2.84560
G1 X82.411 Y62.419 E2.89542
G1 X82.624 Y62.160 E2.90537
G1 X84.159 Y60.624 E2.96985
G1 X84.487 Y60.368 E2.98220
G1 X86.127 Y59.385 E3.03896
G1 X86.535 Y59.207 E3.05218
G1 X88.754 Y58.573 E3.12072
G1 X89.223 Y58.508 E3.13475
G1 X91.974 Y58.508 E3.21644
G1 X92.427 Y58.569 E3.23001
G1 X96.508 Y59.695 E3.35572 F1800.000
G1 X96.852 Y59.831 E3.36670
G1 X101.434 Y62.257 E3.52065
G1 X101.629 Y62.378 E3.52744
G1 X110.283 Y68.578 E3.84355
G1 X117.604 Y74.716 E4.12721
G1 X123.014 Y80.117 E4.35418
G1 X125.774 Y83.290 E4.47903
G1 X128.826 Y87.277 E4.62812
G1 X131.237 Y90.900 E4.75734
G1 X133.344 Y94.586 E4.88340
G1 X136.549 Y101.908 E5.12070
G1 X138.063 Y106.825 E5.27347
G1 X138.923 Y110.849 E5.39563
G1 X139.714 Y118.196 E5.61504
G1 X139.708 Y122.577 E5.74513
G1 X139.186 Y128.440 E5.91989
G1 X138.382 Y133.033 E6.05834
G1 X136.958 Y138.746 E6.23316
G1 X135.506 Y140.111 E6.29233
G1 X131.021 Y140.942 E6.42778
G1 X126.532 Y141.357 E6.56163
G1 X117.320 Y141.492 E6.83517
G1 X113.977 Y141.186 E6.93485
G1 X113.901 Y141.195 E6.93711
G1 X113.574 Y141.308 E6.94738
G1 X107.516 Y140.569 E7.12859
G1 X99.461 Y138.859 E7.37308
G1 X94.348 Y137.207 E7.53263
G1 X90.963 Y135.849 E7.64090
G1 X87.565 Y134.212 E7.75288
G1 X84.005 Y132.150 E7.87506
G1 X79.946 Y129.269 E8.02285
G1 X77.312 Y127.059 E8.12491
G1 X74.306 Y124.061 E8.25097
G1 X71.575 Y120.796 E8.37737
G1 X69.696 Y118.190 E8.47274
G1 X67.334 Y114.253 E8.60907
G1 X65.293 Y110.051 E8.74775
G1 X63.663 Y105.856 E8.88140
G1 X61.757 Y99.313 E9.08374
G1 X60.447 Y92.370 E9.29353
G1 X60.418 Y92.105 E9.30144
G1 X60.282 Y87.481 E9.43881
G1 X60.307 Y87.135 E9.44909
G1 X60.751 Y84.621 E9.52488
G1 X60.856 Y84.263 E9.53597
G1 X61.671 Y82.306 E9.59892
G1 X61.971 Y81.828 E9.61567
G1 X63.365 Y80.260 E9.67796
G1 X63.812 Y79.902 E9.69497
G1 X65.420 Y79.009 E9.74958
G1 X65.878 Y78.835 E9.76413
G1 X67.441 Y78.487 E9.81168
G1 X67.863 Y78.447 E9.82424
G1 X67.923 Y78.804 F7800.000
G1 X69.399 Y78.804 E9.86807 F1800.000
G1 X69.663 Y78.827 E9.87595
G1 X72.062 Y79.250 E9.94829
G1 X72.279 Y79.305 E9.95492
G1 X74.877 Y80.179 E10.03630
G1 X78.206 Y81.658 E10.14448
G1 X78.501 Y81.521 E10.15415
G1 X78.745 Y80.661 E10.18067
G1 X79.207 Y77.772 E10.26754
G1 X79.971 Y69.366 E10.51815
G1 X80.019 Y69.104 E10.52607
G1 X80.848 Y66.064 E10.61963
G1 X80.931 Y65.835 E10.62686
G1 X81.667 Y64.216 E10.67967
G1 X81.786 Y64.001 E10.68695
G1 X82.699 Y62.632 E10.73582
G1 X82.889 Y62.400 E10.74473
G1 X84.396 Y60.892 E10.80803
G1 X84.690 Y60.663 E10.81908
G1 X86.290 Y59.703 E10.87450
G1 X86.656 Y59.544 E10.88632
G1 X88.829 Y58.924 E10.95342
G1 X89.247 Y58.865 E10.96598
G1 X91.950 Y58.865 E11.04621
G1 X92.355 Y58.920 E11.05836 F1800.000
G1 X96.395 Y60.034 E11.18278
G1 X96.702 Y60.156 E11.19260
G1 X101.257 Y62.567 E11.34561
G1 X101.430 Y62.675 E11.35169
G1 X110.070 Y68.865 E11.66724
G1 X117.369 Y74.985 E11.95006
G1 X122.758 Y80.365 E12.17615
G1 X125.494 Y83.511 E12.29996
G1 X128.533 Y87.480 E12.44836
G1 X130.930 Y91.083 E12.57686
G1 X133.029 Y94.755 E12.70244
G1 X136.218 Y102.041 E12.93859
G1 X137.720 Y106.922 E13.09022
G1 X138.569 Y110.897 E13.21089
G1 X139.357 Y118.206 E13.42916
G1 X139.351 Y122.554 E13.55826
G1 X138.831 Y128.401 E13.73255
G1 X138.032 Y132.965 E13.87014
G1 X136.637 Y138.558 E14.04128
G1 X135.338 Y139.779 E14.09422
G1 X130.964 Y140.589 E14.22631
G1 X126.506 Y141.001 E14.35922
G1 X117.328 Y141.135 E14.63176
G1 X113.933 Y140.824 E14.73299
G1 X113.857 Y140.833 E14.73525
G1 X113.536 Y140.944 E14.74536
G1 X107.567 Y140.216 E14.92389
G1 X99.544 Y138.512 E15.16740
G1 X94.475 Y136.873 E15.32559
G1 X91.112 Y135.524 E15.43316
G1 X87.738 Y133.900 E15.54436
G1 X84.205 Y131.853 E15.66559
G1 X80.158 Y128.982 E15.81291
G1 X77.548 Y126.791 E15.91409
G1 X74.564 Y123.815 E16.03923
G1 X71.854 Y120.572 E16.16472
G1 X69.999 Y118.000 E16.25887
G1 X67.644 Y114.076 E16.39473
G1 X65.618 Y109.902 E16.53249
G1 X63.999 Y105.734 E16.66526
G1 X62.106 Y99.238 E16.86615
G1 X60.800 Y92.318 E17.07526
G1 X60.775 Y92.080 E17.08234
G1 X60.640 Y87.488 E17.21875
G1 X60.662 Y87.179 E17.22795
G1 X61.099 Y84.703 E17.30261
G1 X61.193 Y84.382 E17.31254
G1 X61.989 Y82.471 E17.37402
G1 X62.258 Y82.043 E17.38901
G1 X63.612 Y80.520 E17.44952
G1 X64.012 Y80.199 E17.46474
G1 X65.571 Y79.333 E17.51769
G1 X65.981 Y79.178 E17.53071
G1 X67.500 Y78.840 E17.57691
G1 X67.863 Y78.804 E17.58774
G1 X67.923 Y79.161 F7800.000
G1 X69.383 Y79.161 E17.63110 F1800.000
G1 X69.616 Y79.181 E17.63805
G1 X71.987 Y79.600 E17.70954
G1 X72.178 Y79.648 E17.71539
G1 X74.740 Y80.508 E17.79561
G1 X78.437 Y82.152 E17.91574
G1 X78.732 Y82.014 E17.92540
G1 X79.095 Y80.739 E17.96476
G1 X79.560 Y77.829 E18.05227
G1 X80.326 Y69.414 E18.30313
G1 X80.367 Y69.183 E18.31012
G1 X81.189 Y66.172 E18.40279
G1 X81.262 Y65.970 E18.40917
G1 X81.986 Y64.376 E18.46113
G1 X82.091 Y64.187 E18.46755
G1 X82.986 Y62.844 E18.51547
G1 X83.154 Y62.640 E18.52333
G1 X84.633 Y61.160 E18.58546
G1 X84.892 Y60.958 E18.59521
G1 X86.454 Y60.021 E18.64928
G1 X86.776 Y59.881 E18.65972
G1 X88.903 Y59.274 E18.72538
G1 X89.272 Y59.222 E18.73646
G1 X91.925 Y59.222 E18.81524
G1 X92.283 Y59.270 E18.82595
G1 X96.281 Y60.373 E18.94908 F1800.000
G1 X96.552 Y60.481 E18.95775
G1 X101.232 Y62.972 E19.11517
G1 X109.856 Y69.151 E19.43016
G1 X117.133 Y75.253 E19.71214
G1 X122.501 Y80.613 E19.93736
G1 X125.214 Y83.733 E20.06013
G1 X128.239 Y87.683 E20.20783
G1 X130.623 Y91.265 E20.33562
G1 X132.714 Y94.924 E20.46073
G1 X135.886 Y102.174 E20.69571
G1 X137.376 Y107.019 E20.84620
G1 X138.215 Y110.944 E20.96538
G1 X138.992 Y118.070 E21.17820
G1 X138.995 Y122.530 E21.31063
G1 X138.476 Y128.361 E21.48446
G1 X137.681 Y132.897 E21.62117
G1 X136.316 Y138.370 E21.78864
G1 X135.170 Y139.447 E21.83535
G1 X130.907 Y140.237 E21.96409
G1 X126.481 Y140.645 E22.09606
G1 X117.336 Y140.778 E22.36759
G1 X113.890 Y140.461 E22.47037
G1 X113.814 Y140.470 E22.47263
G1 X113.497 Y140.579 E22.48258
G1 X107.618 Y139.862 E22.65843
G1 X99.628 Y138.165 E22.90096
G1 X94.602 Y136.539 E23.05780
G1 X91.262 Y135.200 E23.16466
G1 X87.911 Y133.587 E23.27507
G1 X84.404 Y131.557 E23.39536
G1 X80.371 Y128.695 E23.54222
G1 X77.784 Y126.523 E23.64251
G1 X74.822 Y123.568 E23.76673
G1 X72.132 Y120.348 E23.89131
G1 X70.301 Y117.810 E23.98424
G1 X67.955 Y113.899 E24.11964
G1 X65.943 Y109.753 E24.25647
G1 X64.335 Y105.612 E24.38836
G1 X62.455 Y99.164 E24.58780
G1 X61.154 Y92.265 E24.79624
G1 X61.131 Y92.056 E24.80249
G1 X60.997 Y87.496 E24.93793
G1 X61.017 Y87.223 E24.94605
G1 X61.447 Y84.784 E25.01959
G1 X61.530 Y84.501 E25.02835
G1 X62.308 Y82.635 E25.08836
G1 X62.544 Y82.258 E25.10158
G1 X63.859 Y80.780 E25.16032
G1 X64.212 Y80.497 E25.17375
G1 X65.722 Y79.658 E25.22503
G1 X66.083 Y79.521 E25.23652
G1 X67.558 Y79.193 E25.28138
G1 X67.863 Y79.161 E25.29047
G1 E23.29047 F2400.00000
G92 E0
G1 X65.018 Y82.006 F7800.000
G1 X65.018 Y82.006 F7800.000
G1 X78.898 Y82.531 F7800.000
G1 E2.00000 F2400.00000
G1 X79.036 Y82.248 E2.00935 F1800.000
G1 X79.444 Y80.816 E2.05354
G1 X79.915 Y77.873 E2.14204
G1 X80.680 Y69.462 E2.39280
G1 X80.716 Y69.262 E2.39886
G1 X81.529 Y66.279 E2.49064
G1 X81.593 Y66.104 E2.49617
G1 X82.305 Y64.537 E2.54727
G1 X82.396 Y64.373 E2.55284
G1 X83.273 Y63.057 E2.59981
G1 X83.419 Y62.880 E2.60662
G1 X84.870 Y61.428 E2.66757
G1 X85.095 Y61.253 E2.67603
G1 X86.617 Y60.339 E2.72875
G1 X86.897 Y60.218 E2.73779
G1 X88.977 Y59.624 E2.80202
G1 X89.297 Y59.579 E2.81163
G1 X91.901 Y59.579 E2.88895
G1 X92.211 Y59.621 E2.89824
G1 X96.167 Y60.712 E3.02007
G1 X96.402 Y60.806 E3.02758
G1 X100.901 Y63.187 E3.17873
G1 X109.643 Y69.437 E3.49779
G1 X116.972 Y75.590 E3.78193
G1 X122.244 Y80.861 E4.00327
G1 X124.889 Y83.899 E4.12287
G1 X127.900 Y87.823 E4.26974
G1 X130.274 Y91.380 E4.39670
G1 X132.455 Y95.204 E4.52742
G1 X135.555 Y102.308 E4.75754
G1 X137.032 Y107.116 E4.90689
G1 X137.861 Y110.992 E5.02457
G1 X138.636 Y118.099 E5.23684
G1 X138.643 Y122.403 E5.36464
G1 X138.108 Y128.421 E5.54402
G1 X137.314 Y132.908 E5.67932
G1 X135.995 Y138.181 E5.84070
G1 X135.002 Y139.115 E5.88118
G1 X130.744 Y139.899 E6.00974
G1 X126.367 Y140.293 E6.14022
G1 X117.345 Y140.421 E6.40812
G1 X113.846 Y140.098 E6.51244
G1 X113.770 Y140.107 E6.51471
G1 X113.458 Y140.215 E6.52450
G1 X107.568 Y139.492 E6.70073
G1 X99.595 Y137.786 E6.94279
G1 X94.802 Y136.232 E7.09240
G1 X91.411 Y134.875 E7.20085
G1 X88.083 Y133.274 E7.31049
G1 X84.604 Y131.261 E7.42983
G1 X80.584 Y128.408 E7.57622
G1 X77.947 Y126.187 E7.67857
G1 X75.010 Y123.243 E7.80205
G1 X72.410 Y120.124 E7.92261
G1 X70.658 Y117.702 E8.01138
G1 X68.265 Y113.722 E8.14924
G1 X66.230 Y109.518 E8.28794
G1 X64.639 Y105.397 E8.41911
G1 X62.805 Y99.089 E8.61415
G1 X61.507 Y92.213 E8.82191
G1 X61.488 Y92.031 E8.82733
G1 X61.355 Y87.504 E8.96181
G1 X61.372 Y87.267 E8.96885
G1 X61.796 Y84.866 E9.04126
G1 X61.867 Y84.620 E9.04885
G1 X62.626 Y82.800 E9.10740
G1 X62.831 Y82.473 E9.11886
G1 X64.105 Y81.039 E9.17582
G1 X64.411 Y80.794 E9.18746
G1 X65.872 Y79.983 E9.23708
G1 X66.186 Y79.864 E9.24704
G1 X67.617 Y79.546 E9.29055
G1 X67.869 Y79.518 E9.29809
G1 X69.367 Y79.518 E9.34258
G1 X69.569 Y79.536 E9.34861
G1 X71.912 Y79.949 E9.41925
G1 X74.602 Y80.838 E9.50337
G1 X78.629 Y82.628 E9.63418
G1 X78.842 Y82.551 E9.64090
G1 X79.217 Y82.691 F7800.000
G1 X79.370 Y82.378 E9.65124 F1800.000
G1 X79.793 Y80.894 E9.69705
G1 X80.269 Y77.918 E9.78654
G1 X81.034 Y69.510 E10.03720
G1 X81.065 Y69.340 E10.04232
G1 X81.870 Y66.387 E10.13321
G1 X82.624 Y64.698 E10.18813
G1 X82.701 Y64.560 E10.19284
G1 X83.561 Y63.270 E10.23886
G1 X83.684 Y63.120 E10.24462
G1 X85.107 Y61.696 E10.30440
G1 X85.297 Y61.548 E10.31155
G1 X86.781 Y60.658 E10.36293
G1 X87.018 Y60.555 E10.37058
G1 X89.051 Y59.974 E10.43338
G1 X89.322 Y59.936 E10.44151
G1 X91.877 Y59.936 E10.51737
G1 X92.140 Y59.972 E10.52523
G1 X96.053 Y61.051 E10.64578 F1800.000
G1 X96.252 Y61.130 E10.65213
G1 X100.836 Y63.567 E10.80626
G1 X109.429 Y69.723 E11.12013
G1 X116.662 Y75.790 E11.40043
G1 X121.987 Y81.109 E11.62390
G1 X124.654 Y84.176 E11.74457
G1 X127.651 Y88.089 E11.89090
G1 X129.974 Y91.573 E12.01523
G1 X132.084 Y95.262 E12.14142
G1 X135.224 Y102.441 E12.37408
G1 X136.688 Y107.213 E12.52229
G1 X137.507 Y111.040 E12.63848
G1 X138.280 Y118.128 E12.85018
G1 X138.282 Y122.483 E12.97947
G1 X137.766 Y128.283 E13.15237
G1 X136.966 Y132.828 E13.28940
G1 X135.674 Y137.993 E13.44747
G1 X134.834 Y138.783 E13.48173
G1 X130.703 Y139.544 E13.60644
G1 X126.355 Y139.936 E13.73607
G1 X117.353 Y140.064 E14.00337
G1 X113.803 Y139.735 E14.10923
G1 X113.727 Y139.744 E14.11150
G1 X113.420 Y139.850 E14.12114
G1 X107.634 Y139.141 E14.29421
G1 X99.697 Y137.444 E14.53522
G1 X94.918 Y135.894 E14.68438
G1 X91.560 Y134.551 E14.79177
G1 X88.256 Y132.962 E14.90062
G1 X84.804 Y130.965 E15.01902
G1 X80.796 Y128.121 E15.16493
G1 X78.194 Y125.929 E15.26595
G1 X75.279 Y123.008 E15.38848
G1 X72.688 Y119.900 E15.50861
G1 X70.951 Y117.499 E15.59661
G1 X68.575 Y113.546 E15.73356
G1 X66.560 Y109.382 E15.87090
G1 X64.979 Y105.289 E16.00117
G1 X63.154 Y99.014 E16.19521
G1 X61.861 Y92.160 E16.40230
G1 X61.712 Y87.511 E16.54040
G1 X61.727 Y87.311 E16.54635
G1 X62.144 Y84.947 E16.61764
G1 X62.205 Y84.740 E16.62406
G1 X62.944 Y82.965 E16.68114
G1 X63.118 Y82.688 E16.69084
G1 X64.352 Y81.299 E16.74602
G1 X64.611 Y81.092 E16.75587
G1 X66.023 Y80.307 E16.80383
G1 X66.288 Y80.207 E16.81225
G1 X67.675 Y79.899 E16.85442
G1 X67.889 Y79.875 E16.86080
G1 X69.352 Y79.875 E16.90425
G1 X69.523 Y79.890 E16.90935
G1 X71.837 Y80.299 E16.97913
G1 X74.465 Y81.168 E17.06132
G1 X78.665 Y83.035 E17.19777
G1 X78.918 Y83.050 E17.20531
G1 X79.091 Y82.943 E17.21134
G1 X79.191 Y82.744 E17.21795
G1 X79.196 Y83.353 F7800.000
G1 X79.388 Y83.147 E17.22632 F1800.000
G1 X79.693 Y82.539 E17.24651
G1 X80.142 Y80.972 E17.29492
G1 X80.625 Y77.950 E17.38577
G1 X81.388 Y69.558 E17.63596
G1 X82.255 Y66.374 E17.73395
G1 X82.943 Y64.859 E17.78335
G1 X83.848 Y63.483 E17.83226
G1 X83.949 Y63.360 E17.83697
G1 X85.344 Y61.964 E17.89558
G1 X85.500 Y61.843 E17.90143
G1 X86.945 Y60.976 E17.95147
G1 X87.138 Y60.892 E17.95773
G1 X89.125 Y60.324 E18.01909
G1 X89.347 Y60.293 E18.02574
G1 X91.853 Y60.293 E18.10015
G1 X92.068 Y60.322 E18.10658
G1 X95.940 Y61.390 E18.22583
G1 X96.102 Y61.455 E18.23103
G1 X100.546 Y63.807 E18.38030
G1 X109.216 Y70.010 E18.69682
G1 X116.478 Y76.106 E18.97836
G1 X121.768 Y81.399 E19.20053
